projects_img/aml/logo.svg

<svg height="208" viewBox="0 0 479 208" width="479" xmlns="http://www.w3.org/2000/svg" xmlns:xlink="http://www.w3.org/1999/xlink"><mask id="a" fill="#fff"><path d="m.65715684.00148065h69.82617986v90.48239035h-69.82617986z" fill="#fff" fill-rule="evenodd"/></mask><mask id="b" fill="#fff"><path d="m.5116482.19304034h105.3830348v69.58640486h-105.3830348z" fill="#fff" fill-rule="evenodd"/></mask><g fill="none" fill-rule="evenodd"><g fill="#006cc6"><path d="m41.676615 0-41.676615 96h15.5554716l11.2188641-27.1874551 12.6905932 15.0210566h5.5693237l17.8015363-22.0139007 13.3094069 34.1802992h14.8548042l-19.8085883-46.6080049 18.6708223-25.0624851-5.8820048-13.5140206-18.5153003 25.0591982-15.4752551-35.8746876zm-10.4232464 56.6412161 14.316207-34.49584 11.0125929 26.9770945-14.5372119 19.4747835z"/><path d="m115 0v96h13.830759v-61.4181651l30.852094 49.2401005 3.317147-17.653194-39.652889-66.1687414z"/><path d="m162.307435 66.1717974-3.307435 17.6513855h6.613234l30.610151-49.2350561v61.4118732h13.776615v-95.99016545l-8.314434-.00983455z"/><path d="m237 0v96h66v-14.346806h-52.744933v-81.653194z"/></g><g fill="#192240" transform="translate(25 106)"><path d="m47.3757165 28.1194258v-12.0902903s-11.2699784-9.14216131-31.7995971-4.172129c0 0-15.35107911 3.3133548-15.35107911 19.2697741 0 15.9547742 15.16980571 18.5936129 15.16980571 18.5936129l16.5677339 4.1129033s5.9705899 1.2272903 5.9705899 7.548-7.5154964 8.5630645-7.5154964 8.5630645-7.0435324 2.3591613-17.216072-.0329032c-10.17417262-2.3937097-12.48826615-5.1542904-12.48826615-5.1542904v12.1495162s6.33476979 4.2346451 18.76261155 5.0934193c6.1420647.4260968 11.333669-.500129 15.0113956-1.5448064 5.2161008-1.479 9.9145108-4.59 12.8442806-9.1832903 1.5579712-2.4397742 2.794223-5.5047097 2.9069065-9.1553226.3102878-9.9614516-5.2993885-14.6666129-5.2993885-14.6666129s-5.7223597-4.9716775-14.9852662-6.0739355c-6.0604101-.7222258-10.425669-2.2686774-12.7560935-3.3890323-2.6995036-1.2980322-4.5661295-3.9697742-4.6053237-6.9820645 0-.041129 0-.0822581 0-.1233871 0-4.1737742 3.2155611-6.4819355 3.2155611-6.4819355s3.4245971-3.0303871 12.013036-2.479258c8.5900719.5527742 13.6461295 2.1485806 19.5546618 6.1989677"/><path d="m185.805216 28.1194258v-12.0902903s-11.269979-9.14216131-31.799597-4.172129c0 0-15.351079 3.3133548-15.351079 19.2697741 0 15.9547742 15.169805 18.5936129 15.169805 18.5936129l16.569367 4.1129033s5.968957 1.2272903 5.968957 7.548-7.515496 8.5630645-7.515496 8.5630645-7.043533 2.3591613-17.217705-.0329032c-10.17254-2.3937097-12.488267-5.1542904-12.488267-5.1542904v12.1495162s6.336403 4.2346451 18.764245 5.0934193c6.142065.4260968 11.332036-.500129 15.011396-1.5448064 5.2161-1.479 9.914511-4.59 12.84428-9.1832903 1.557972-2.4397742 2.794223-5.5047097 2.906907-9.1553226.310288-9.9614516-5.299389-14.6666129-5.299389-14.6666129s-5.722359-4.9716775-14.985266-6.0739355c-6.062043-.7222258-10.425669-2.2686774-12.757727-3.3890323-2.699503-1.2980322-4.566129-3.9697742-4.60369-6.9820645 0-.041129-.001633-.0822581-.001633-.1233871 0-4.1737742 3.217194-6.4819355 3.217194-6.4819355s3.422964-3.0303871 12.013036-2.479258c8.590072.5527742 13.644496 2.1485806 19.554662 6.1989677"/><path d="m.65715684.00148065 29.25360436 63.53119355-13.0843454 26.9526774h12.6434101l41.0135108-90.48387095h-13.5546763l-20.7484532 50.45874195-20.9133957-50.45874195z" mask="url(#a)" transform="translate(60.42446 11.516129)"/><path d="m237.362468 70.7922774c-12.316791-.2994193-11.387561-12.1412903-11.387561-12.1412903v-35.3232581l22.964561-.1052903v-11.6477419l-22.964561.1052903v-10.58496775l-6.721813-.10529032-15.571547 15.68661287v6.5460968h8.738684v35.6736774c0 9.4317097 5.781151 16.2081291 5.781151 16.2081291s3.06205 4.774258 12.485 6.5296451c9.424583 1.7520968 18.308612-1.8754838 18.308612-1.8754838v-11.4898065c-5.269993 2.8000645-11.632526 2.5236774-11.632526 2.5236774"/><path d="m105.895173 69.7794452s-.04246-14.9907097-.04246-33.3309678c0-18.3386129-.857374-21.1830968-3.375604-25.9112903-2.5182306-4.72819355-8.1866982-9.61267742-20.0952162-10.30364516-11.9068849-.69261291-21.3673957 7.72732258-21.3673957 7.72732258l-4.296669 3.65554838c-.1763741-.3553548-.3592806-.7107097-.5552518-1.0792258-2.5182303-4.72819355-8.188331-9.61267742-20.096849-10.30364516-11.9068849-.69261291-21.3673956 7.72732258-21.3673956 7.72732258l-1.5204101 1.29309677v-1.64022581-6.44574193h-12.6662734v68.61145165h12.6662734v-48.8481291l.383777-.2204516c4.7278057-2.7803226 9.2514748-5.896258 11.4937122-6.8784193 2.4153453-1.0561936 4.9858345-1.7553871 7.6183813-1.7932258 13.8078057-.1990646 14.2405755 15.4513548 14.2405755 15.4513548v42.288871h12.6662734s-.0424604-14.9907097-.0424604-33.3309678c0-7.079129-.1306475-11.8352903-.4311367-15.2967097l.769187-.4409032c4.7294389-2.7803226 9.2514749-5.896258 11.4937123-6.8784193 2.4153453-1.0561936 4.9858345-1.7553871 7.6183813-1.7932258 13.8078057-.1990646 14.2405755 15.4513548 14.2405755 15.4513548v42.288871z" mask="url(#b)" transform="translate(347.848921 10.870968)"/><path d="m276.622037 39.3109645s1.007618-17.3663226 19.922108-17.3663226c18.914489 0 19.182316 17.3663226 19.182316 17.3663226zm52.348813 10.0930645c.4491-4.3020967.356014-8.6535484-.440936-12.9046451-1.210122-6.4391613-3.765913-12.342-8.590072-17.2955807-7.015769-7.2058064-15.780582-9.72125804-25.525251-9.1487419-9.999432.5856774-18.282482 4.7166774-24.261238 12.9359032-6.471949 8.8953871-7.925403 19.0262903-6.41969 29.672129 1.330971 9.3971613 5.500259 17.4189678 13.670625 22.389 15.223698 9.2573226 31.036943 8.874 46.908979 1.539871l1.290144-.7255161.008165-.3240968v-10.6260968s-11.248748 8.883871-30.321647 5.619871c-19.076166-3.2623548-19.014108-20.7635806-19.014108-20.7635806h52.654201c.014698-.1233871.027763-.2467742.040828-.3685162z"/></g></g></svg>

<?xml version="1.0" encoding="UTF-8"?>
<svg width="479px" height="208px" viewBox="0 0 479 208" version="1.1" xmlns="http://www.w3.org/2000/svg" xmlns:xlink="http://www.w3.org/1999/xlink">
    <!-- Generator: Sketch 51.3 (57544) - http://www.bohemiancoding.com/sketch -->
    <title>Group 20</title>
    <desc>Created with Sketch.</desc>
    <defs>
        <polygon id="path-1" points="0.657156835 0.00148064516 70.4833367 0.00148064516 70.4833367 90.483871 0.657156835 90.483871"></polygon>
        <polygon id="path-3" points="0.511648201 0.193040342 105.894683 0.193040342 105.894683 69.7794452 0.511648201 69.7794452"></polygon>
    </defs>
    <g id="Page-1" stroke="none" stroke-width="1" fill="none" fill-rule="evenodd">
        <g id="Desktop-HD" transform="translate(-481.000000, -409.000000)">
            <g id="Group-20" transform="translate(481.000000, 409.000000)">
                <path d="M41.676615,0 L0,96 L15.5554716,96 L26.7743357,68.8125449 L39.4649289,83.8336015 L45.0342526,83.8336015 L62.8357889,61.8197008 L76.1451958,96 L91,96 L71.1914117,49.3919951 L89.862234,24.32951 L83.9802292,10.8154894 L65.4649289,35.8746876 L49.9896738,0 L41.676615,0 Z M31.2533686,56.6412161 L45.5695756,22.1453761 L56.5821685,49.1224706 L42.0449566,68.5972541 L31.2533686,56.6412161 Z" id="Fill-1" fill="#006CC6"></path>
                <polygon id="Fill-2" fill="#006CC6" points="115 0 115 96 128.830759 96 128.830759 34.5818349 159.682853 83.8219354 163 66.1687414 123.347111 0"></polygon>
                <polygon id="Fill-3" fill="#006CC6" points="162.307435 66.1717974 159 83.8231829 165.613234 83.8231829 196.223385 34.5881268 196.223385 96 210 96 210 0.00983455412 201.685566 0"></polygon>
                <polygon id="Fill-4" fill="#006CC6" points="237 0 237 96 303 96 303 81.653194 250.255067 81.653194 250.255067 0"></polygon>
                <g id="Group-19" transform="translate(25.000000, 106.000000)">
                    <path d="M47.3757165,28.1194258 L47.3757165,16.0291355 C47.3757165,16.0291355 36.1057381,6.88697419 15.5761194,11.8570065 C15.5761194,11.8570065 0.225040288,15.1703613 0.225040288,31.1267806 C0.225040288,47.0815548 15.394846,49.7203935 15.394846,49.7203935 L31.9625799,53.8332968 C31.9625799,53.8332968 37.9331698,55.0605871 37.9331698,61.3812968 C37.9331698,67.7020065 30.4176734,69.9443613 30.4176734,69.9443613 C30.4176734,69.9443613 23.374141,72.3035226 13.2016014,69.9114581 C3.02742878,67.5177484 0.713335252,64.7571677 0.713335252,64.7571677 L0.713335252,76.9066839 C0.713335252,76.9066839 7.04810504,81.141329 19.4759468,82.0001032 C25.6180115,82.4262 30.8096158,81.4999742 34.4873424,80.4552968 C39.7034432,78.9762968 44.4018532,75.8652968 47.331623,71.2720065 C48.8895942,68.8322323 50.125846,65.7672968 50.2385295,62.1166839 C50.5488173,52.1552323 44.939141,47.450071 44.939141,47.450071 C44.939141,47.450071 39.2167813,42.4783935 29.9538748,41.3761355 C23.8934647,40.6539097 19.5282058,39.1074581 17.1977813,37.9871032 C14.4982777,36.689071 12.6316518,34.017329 12.5924576,31.0050387 C12.5924576,30.9639097 12.5924576,30.9227806 12.5924576,30.8816516 C12.5924576,26.7078774 15.8080187,24.3997161 15.8080187,24.3997161 C15.8080187,24.3997161 19.2326158,21.369329 27.8210547,21.9204581 C36.4111266,22.4732323 41.4671842,24.0690387 47.3757165,28.1194258" id="Fill-5" fill="#192240"></path>
                    <path d="M185.805216,28.1194258 L185.805216,16.0291355 C185.805216,16.0291355 174.535237,6.88697419 154.005619,11.8570065 C154.005619,11.8570065 138.65454,15.1703613 138.65454,31.1267806 C138.65454,47.0815548 153.824345,49.7203935 153.824345,49.7203935 L170.393712,53.8332968 C170.393712,53.8332968 176.362669,55.0605871 176.362669,61.3812968 C176.362669,67.7020065 168.847173,69.9443613 168.847173,69.9443613 C168.847173,69.9443613 161.80364,72.3035226 151.629468,69.9114581 C141.456928,67.5177484 139.141201,64.7571677 139.141201,64.7571677 L139.141201,76.9066839 C139.141201,76.9066839 145.477604,81.141329 157.905446,82.0001032 C164.047511,82.4262 169.237482,81.4999742 172.916842,80.4552968 C178.132942,78.9762968 182.831353,75.8652968 185.761122,71.2720065 C187.319094,68.8322323 188.555345,65.7672968 188.668029,62.1166839 C188.978317,52.1552323 183.36864,47.450071 183.36864,47.450071 C183.36864,47.450071 177.646281,42.4783935 168.383374,41.3761355 C162.321331,40.6539097 157.957705,39.1074581 155.625647,37.9871032 C152.926144,36.689071 151.059518,34.017329 151.021957,31.0050387 C151.021957,30.9639097 151.020324,30.9227806 151.020324,30.8816516 C151.020324,26.7078774 154.237518,24.3997161 154.237518,24.3997161 C154.237518,24.3997161 157.660482,21.369329 166.250554,21.9204581 C174.840626,22.4732323 179.89505,24.0690387 185.805216,28.1194258" id="Fill-7" fill="#192240"></path>
                    <g id="Group-11" transform="translate(60.424460, 11.516129)">
                        <mask id="mask-2" fill="white">
                            <use xlink:href="#path-1"></use>
                        </mask>
                        <g id="Clip-10"></g>
                        <polygon id="Fill-9" fill="#192240" mask="url(#mask-2)" points="0.657156835 0.00148064516 29.9107612 63.5326742 16.8264158 90.4853516 29.4698259 90.4853516 70.4833367 0.00148064516 56.9286604 0.00148064516 36.1802072 50.4602226 15.2668115 0.00148064516"></polygon>
                    </g>
                    <path d="M237.362468,70.7922774 C225.045677,70.4928581 225.974907,58.6509871 225.974907,58.6509871 L225.974907,23.327729 L248.939468,23.2224387 L248.939468,11.5746968 L225.974907,11.6799871 L225.974907,1.09501935 L219.253094,0.989729032 L203.681547,16.6763419 L203.681547,23.2224387 L212.420231,23.2224387 L212.420231,58.8961161 C212.420231,68.3278258 218.201382,75.1042452 218.201382,75.1042452 C218.201382,75.1042452 221.263432,79.8785032 230.686382,81.6338903 C240.110965,83.3859871 248.994994,79.7584065 248.994994,79.7584065 L248.994994,68.2686 C243.725001,71.0686645 237.362468,70.7922774 237.362468,70.7922774" id="Fill-12" fill="#192240"></path>
                    <g id="Group-16" transform="translate(347.848921, 10.870968)">
                        <mask id="mask-4" fill="white">
                            <use xlink:href="#path-3"></use>
                        </mask>
                        <g id="Clip-15"></g>
                        <path d="M105.895173,69.7794452 C105.895173,69.7794452 105.852713,54.7887355 105.852713,36.4484774 C105.852713,18.1098645 104.995339,15.2653806 102.477109,10.5371871 C99.9588784,5.80899355 94.2904108,0.924509677 82.3818928,0.233541935 C70.4750079,-0.459070968 61.0144971,7.96086452 61.0144971,7.96086452 L56.7178281,11.6164129 C56.541454,11.2610581 56.3585475,10.9057032 56.1625763,10.5371871 C53.644346,5.80899355 47.9742453,0.924509677 36.0657273,0.233541935 C24.1588424,-0.459070968 14.6983317,7.96086452 14.6983317,7.96086452 L13.1779216,9.25396129 L13.1779216,7.61373548 L13.1779216,1.16799355 L0.511648201,1.16799355 L0.511648201,69.7794452 L13.1779216,69.7794452 L13.1779216,20.9313161 L13.5616986,20.7108645 C18.2895043,17.9305419 22.8131734,14.8146065 25.0554108,13.8324452 C27.4707561,12.7762516 30.0412453,12.0770581 32.6737921,12.0392194 C46.4815978,11.8401548 46.9143676,27.4905742 46.9143676,27.4905742 L46.9143676,69.7794452 L59.580641,69.7794452 C59.580641,69.7794452 59.5381806,54.7887355 59.5381806,36.4484774 C59.5381806,29.3693484 59.4075331,24.6131871 59.1070439,21.1517677 L59.8762309,20.7108645 C64.6056698,17.9305419 69.1277058,14.8146065 71.3699432,13.8324452 C73.7852885,12.7762516 76.3557777,12.0770581 78.9883245,12.0392194 C92.7961302,11.8401548 93.2289,27.4905742 93.2289,27.4905742 L93.2289,69.7794452 L105.895173,69.7794452 Z" id="Fill-14" fill="#192240" mask="url(#mask-4)"></path>
                    </g>
                    <path d="M276.622037,39.3109645 C276.622037,39.3109645 277.629655,21.9446419 296.544145,21.9446419 C315.458634,21.9446419 315.726461,39.3109645 315.726461,39.3109645 L276.622037,39.3109645 Z M328.97085,49.404029 C329.41995,45.1019323 329.326864,40.7504806 328.529914,36.4993839 C327.319792,30.0602226 324.764001,24.1573839 319.939842,19.2038032 C312.924073,11.9979968 304.15926,9.48254516 294.414591,10.0550613 C284.415159,10.6407387 276.132109,14.7717387 270.153353,22.9909645 C263.681404,31.8863516 262.22795,42.0172548 263.733663,52.6630935 C265.064634,62.0602548 269.233922,70.0820613 277.404288,75.0520935 C292.627986,84.3094161 308.441231,83.9260935 324.313267,76.5919645 L325.603411,75.8664484 L325.611576,75.5423516 L325.611576,64.9162548 C325.611576,64.9162548 314.362828,73.8001258 295.289929,70.5361258 C276.213763,67.273771 276.275821,49.7725452 276.275821,49.7725452 L328.930022,49.7725452 C328.94472,49.6491581 328.957785,49.525771 328.97085,49.404029 Z" id="Fill-17" fill="#192240"></path>
                </g>
            </g>
        </g>
    </g>
</svg>
